tools/download-figma-icons/icons/outlined-medium/pkw.svg

<svg width="24" height="24" viewBox="0 0 24 24" fill="none" xmlns="http://www.w3.org/2000/svg">
<path d="M22.1993 11.3106L18.0812 10.5539L16.2332 8.71644C15.1263 7.69497 13.8033 6.75 11.6306 6.75L9.6027 6.753C6.40555 6.753 3.60739 8.75544 2.99241 9.22642L1.33346 9.73716C0.548233 9.97865 0 10.7481 0 11.6091V14.1343C0 15.056 0.597731 15.839 1.45345 16.0385L3.16115 16.4374C3.1844 16.4427 3.2069 16.4367 3.2309 16.4397C3.64039 17.3569 4.55761 17.9996 5.62557 17.9996C6.66879 17.9996 7.56426 17.3832 7.98725 16.4997H16.0135C16.4365 17.3832 17.332 17.9996 18.3752 17.9996C19.4184 17.9996 20.3139 17.3832 20.7369 16.4997H22.5128C23.3333 16.4997 24 15.8045 24 14.9495V13.6183C24 12.5076 23.2523 11.5394 22.1993 11.3106ZM15.196 9.7994L15.8395 10.4399L11.6186 10.3056L11.3554 8.24995H11.6306C13.2011 8.24995 14.1663 8.85068 15.196 9.7994ZM9.6027 8.25295H9.84344L10.0999 10.2576L6.25855 10.1354C6.70329 9.32617 7.65951 8.25295 9.6027 8.25295ZM5.62482 16.4997C5.00459 16.4997 4.49986 15.995 4.49986 15.3747C4.49986 14.7545 5.00459 14.2498 5.62482 14.2498C6.24505 14.2498 6.74979 14.7545 6.74979 15.3747C6.74979 15.995 6.24505 16.4997 5.62482 16.4997ZM18.3744 16.4997C17.7542 16.4997 17.2495 15.995 17.2495 15.3747C17.2495 14.7545 17.7542 14.2498 18.3744 14.2498C18.9947 14.2498 19.4994 14.7545 19.4994 15.3747C19.4994 15.995 18.9947 16.4997 18.3744 16.4997ZM20.9611 14.9997C20.7774 13.7308 19.6929 12.7498 18.3744 12.7498C17.056 12.7498 15.9715 13.7308 15.7878 14.9997H8.21224C8.0285 13.7308 6.94403 12.7498 5.62557 12.7498C4.35061 12.7498 3.28715 13.6648 3.05165 14.8715L1.79544 14.5783C1.62745 14.5393 1.5007 14.348 1.5007 14.1343V11.6091C1.5007 11.4044 1.6162 11.2199 1.77519 11.1711L3.56764 10.6191C3.65989 10.5906 3.74613 10.5441 3.82113 10.4841C3.83013 10.4766 4.16912 10.2066 4.7256 9.8594C4.59211 10.1609 4.49836 10.4459 4.44436 10.6911C4.39636 10.9086 4.44811 11.1366 4.58536 11.3129C4.7226 11.4884 4.93035 11.5948 5.15384 11.6016L17.6387 11.9976L21.9061 12.7806C22.2503 12.8556 22.5008 13.2073 22.5008 13.6175L22.5135 14.999H20.9633L20.9611 14.9997Z" fill="black"/>
</svg>

<svg xmlns="http://www.w3.org/2000/svg" width="24" height="24" fill="none" viewBox="0 0 24 24"><path fill="currentColor" d="m22.2 11.31-4.119-.756-1.848-1.838c-1.107-1.021-2.43-1.966-4.602-1.966l-2.028.003c-3.197 0-5.996 2.002-6.61 2.473l-1.66.511C.548 9.98 0 10.748 0 11.61v2.525c0 .922.598 1.705 1.453 1.904l1.708.4c.023.005.046-.001.07.002A2.63 2.63 0 0 0 5.626 18a2.62 2.62 0 0 0 2.361-1.5h8.027a2.62 2.62 0 0 0 2.361 1.5 2.62 2.62 0 0 0 2.362-1.5h1.776c.82 0 1.487-.695 1.487-1.55v-1.332c0-1.11-.748-2.079-1.8-2.307M15.195 9.8l.643.64-4.22-.134-.264-2.056h.276c1.57 0 2.535.6 3.565 1.55M9.603 8.252h.24l.257 2.005-3.841-.123c.444-.809 1.4-1.882 3.344-1.882M5.625 16.5c-.62 0-1.125-.505-1.125-1.125s.505-1.125 1.125-1.125 1.125.505 1.125 1.125S6.245 16.5 5.625 16.5m12.75 0a1.126 1.126 0 0 1-.001-2.25 1.126 1.126 0 0 1 0 2.25M20.96 15a2.62 2.62 0 0 0-2.587-2.25A2.62 2.62 0 0 0 15.788 15H8.212a2.62 2.62 0 0 0-2.586-2.25 2.63 2.63 0 0 0-2.574 2.121l-1.257-.293c-.168-.039-.294-.23-.294-.444V11.61c0-.205.115-.39.274-.438l1.793-.552a.8.8 0 0 0 .253-.135c.01-.007.348-.277.905-.625a4.5 4.5 0 0 0-.282.832.75.75 0 0 0 .71.91l12.485.397 4.267.783c.344.075.595.426.595.836L22.513 15h-1.552"/></svg>
